img/dark/snapshot.svg

<svg height="16" viewBox="0 0 16 16" width="16" xmlns="http://www.w3.org/2000/svg">
  <path
    d="m13 5c1.1045695 0 2 .8954305 2 2v5c0 1.1045695-.8954305 2-2 2h-7c-1.1045695 0-2-.8954305-2-2v-5c0-1.1045695.8954305-2 2-2zm0 1h-7c-.55228475 0-1 .44771525-1 1v5c0 .5522847.44771525 1 1 1h7c.5522847 0 1-.4477153 1-1v-5c0-.55228475-.4477153-1-1-1zm-3-4c1.1045695 0 2 .8954305 2 2h-1c0-.51283584-.3860402-.93550716-.8833789-.99327227l-.1166211-.00672773h-7c-.55228475 0-1 .44771525-1 1v5c0 .55228475.44771525 1 1 1v1c-1.1045695 0-2-.8954305-2-2v-5c0-1.1045695.8954305-2 2-2z"
    fill="#d6d6d6" fill-rule="evenodd" />
</svg>

<?xml version="1.0" encoding="UTF-8"?>
<svg width="16px" height="16px" viewBox="0 0 16 16" version="1.1" xmlns="http://www.w3.org/2000/svg" xmlns:xlink="http://www.w3.org/1999/xlink">
    <title>snapshot</title>
    <g id="snapshot" stroke="none" stroke-width="1" fill="none" fill-rule="evenodd">
        <path d="M13,5 C14.1045695,5 15,5.8954305 15,7 L15,12 C15,13.1045695 14.1045695,14 13,14 L6,14 C4.8954305,14 4,13.1045695 4,12 L4,7 C4,5.8954305 4.8954305,5 6,5 L13,5 Z M13,6 L6,6 C5.44771525,6 5,6.44771525 5,7 L5,12 C5,12.5522847 5.44771525,13 6,13 L13,13 C13.5522847,13 14,12.5522847 14,12 L14,7 C14,6.44771525 13.5522847,6 13,6 Z M10,2 C11.1045695,2 12,2.8954305 12,4 L11,4 C11,3.48716416 10.6139598,3.06449284 10.1166211,3.00672773 L10,3 L3,3 C2.44771525,3 2,3.44771525 2,4 L2,9 C2,9.55228475 2.44771525,10 3,10 L3,11 C1.8954305,11 1,10.1045695 1,9 L1,4 C1,2.8954305 1.8954305,2 3,2 L10,2 Z" id="Combined-Shape" fill="#D6D6D6"></path>
    </g>
</svg>
